packages/foundations/icons/Activities/Ghost.svg

<svg width="24" height="24" viewBox="0 0 24 24" fill="none" xmlns="http://www.w3.org/2000/svg">
<path fill-rule="evenodd" clip-rule="evenodd" d="M12.2134 0.199951L12.213 0.215951L12.2991 0.222826C14.9166 0.455782 17.3046 2.44033 18.0219 4.95594L18.0842 5.19329L18.135 5.42643L18.3497 6.51941C18.4411 6.98473 18.9206 7.40784 19.3972 7.4659L19.507 7.47268L19.506 7.50595L19.5911 7.51614C21.3889 7.783 22.797 9.24867 22.9799 11.075L22.9951 11.2794L23 11.4792V14.0181H21.1921C20.1368 14.0181 19.2724 14.8361 19.196 15.8749L19.1905 16.0247L19.153 16.024L19.1457 16.078C18.9203 17.374 17.8692 18.3857 16.5553 18.5425L16.3746 18.5585L16.1986 18.5636H15.4205C14.7801 18.5636 13.9943 19.0709 13.6867 19.6622L13.6283 19.79L12 23.9348L10.3717 19.79C10.1333 19.1831 9.38136 18.6407 8.71972 18.5711L8.57954 18.5636H7.80141C6.38853 18.5636 5.20303 17.5759 4.89023 16.2522L4.85443 16.0776L4.846 16.024L4.80952 16.0247C4.80952 15.0157 4.07454 14.1866 3.11147 14.0409L2.95758 14.0236L2.8079 14.0181H1V11.4792C1 9.53318 2.37775 7.91661 4.21019 7.55043L4.40822 7.51602L4.493 7.50495L4.49302 7.47268C4.92705 7.47268 5.38921 7.14574 5.57797 6.73884L5.62244 6.62606L5.65028 6.51941L5.86497 5.42643C6.43788 2.50981 9.24705 0.199951 12.2134 0.199951ZM11.996 2.20495L11.812 2.22135C10.0117 2.41222 8.31567 3.8567 7.8716 5.61528L7.82747 5.81192L7.61278 6.9049C7.37627 8.10893 6.37917 9.09443 5.20212 9.38529L5.01486 9.42538L4.999 9.42695L4.99986 9.47268C3.99626 9.47268 3.1683 10.2076 3.02272 11.1744L3.00547 11.3289L3 11.4792V12.023C4.85957 12.1139 6.37821 13.46 6.73174 15.2329L6.76619 15.4316L6.781 15.556L6.80952 15.5567C6.80952 16.0333 7.13867 16.4326 7.57522 16.537L7.68646 16.5568L7.80141 16.5636H8.57954C9.83481 16.5636 11.1375 17.3055 11.8632 18.3656L11.9787 18.5451L12 18.583L12.0208 18.547C12.6468 17.5111 13.8289 16.734 15.0211 16.5883L15.2315 16.5692L15.4205 16.5636H16.1986C16.7059 16.5636 17.1263 16.1766 17.1838 15.6744L17.1905 15.5567L17.218 15.556L17.2338 15.4327C17.5001 13.6318 18.9628 12.2214 20.795 12.0382L21 12.023V11.4792C21 10.4743 20.2627 9.64192 19.3026 9.49552L19.1492 9.47818L19.0001 9.47268L19 9.42695L18.7965 9.38495C17.7415 9.1237 16.8322 8.30446 16.4847 7.27197L16.4263 7.07597L16.3872 6.9049L16.1725 5.81192C15.8109 3.97078 14.0486 2.40883 12.1808 2.21979L11.996 2.20495ZM10 6.19995C10.5523 6.19995 11 6.64261 11 7.19891V8.20099C11 8.71329 10.6173 9.13553 10.1173 9.19323L10 9.19995C9.44771 9.19995 9 8.75729 9 8.20099V7.19891C9 6.68661 9.38272 6.26438 9.88267 6.20667L10 6.19995ZM14 6.19995C14.5523 6.19995 15 6.64261 15 7.19891V8.20099C15 8.71329 14.6173 9.13553 14.1173 9.19323L14 9.19995C13.4477 9.19995 13 8.75729 13 8.20099V7.19891C13 6.68661 13.3827 6.26438 13.8827 6.20667L14 6.19995Z" fill="#3D474D"/>
</svg>

<svg width="24" height="24" fill="none" xmlns="http://www.w3.org/2000/svg"><path fill-rule="evenodd" clip-rule="evenodd" d="M12.213.2v.016l.086.007c2.618.233 5.006 2.217 5.723 4.733l.062.237.051.233.215 1.093c.091.466.57.889 1.047.947l.11.007-.001.033.085.01a4.007 4.007 0 013.389 3.559l.015.204.005.2v2.54h-1.808c-1.055 0-1.92.817-1.996 1.856l-.006.15-.037-.001-.007.054a3 3 0 01-2.59 2.465l-.181.015-.176.006h-.779c-.64 0-1.426.507-1.733 1.098l-.059.128L12 23.935l-1.628-4.145c-.239-.607-.99-1.15-1.652-1.219l-.14-.007H7.8a3 3 0 01-2.91-2.312l-.037-.174-.008-.054H4.81a2 2 0 00-1.699-1.983l-.153-.017-.15-.006H1V11.48a4 4 0 013.21-3.93l.198-.034.085-.011v-.032c.434 0 .896-.327 1.085-.734l.044-.113.028-.107.215-1.093C6.438 2.51 9.247.2 12.213.2zm-.217 2.005l-.184.016c-1.8.191-3.496 1.636-3.94 3.394l-.045.197-.214 1.093c-.237 1.204-1.234 2.19-2.41 2.48l-.188.04-.016.002v.046a1.997 1.997 0 00-1.976 1.701l-.018.155-.005.15v.544a4.001 4.001 0 013.732 3.21l.034.199.015.124h.029c0 .477.329.877.765.981l.111.02.115.007h.779c1.255 0 2.557.741 3.283 1.802l.116.18.021.037.02-.036c.627-1.036 1.809-1.813 3.001-1.959l.21-.019.19-.005h.778a.997.997 0 00.985-.89l.006-.117.028-.001.016-.123a4.006 4.006 0 013.561-3.395l.205-.015v-.544a2.006 2.006 0 00-1.697-1.983l-.154-.018L19 9.473v-.046l-.203-.042c-1.056-.261-1.965-1.08-2.312-2.113l-.059-.196-.039-.171-.215-1.093c-.361-1.841-2.123-3.403-3.991-3.592l-.185-.015zM10 6.2c.552 0 1 .443 1 .999V8.2a.997.997 0 01-.883.992L10 9.2c-.552 0-1-.443-1-.999V7.199c0-.512.383-.935.883-.992L10 6.2zm4 0c.552 0 1 .443 1 .999V8.2a.997.997 0 01-.883.992L14 9.2c-.552 0-1-.443-1-.999V7.199c0-.512.383-.935.883-.992L14 6.2z" fill="#3D474D"/></svg>
